X:1
T:GB/7e/19 Barley Mow
T:GB/7e/19 Barley Mow
T:Horseshoes Transcribed by Simon Furey and Lewis Jones
C:Horseshoes
C:Transcribed by Simon Furey and Lewis Jones
L:1/8
Q:1/4=100
M:6/8
K:C
V:1 treble 
V:1
 G | c2 c cBA | GGF E2 G | AAA (cB)A | GGF E3 | c3 c3 | c3 cde | c3 c>de | c3 c3 | cde cde | x6 | %11
w: and|the brown bowl. We'll *|drink succ- ess to the|mul- b'ry bush, Suc- * *|cess to the bar-|ley *|mow. * * *|||||
 e' | aduf a | bae ba | bae b_a | bae b | Bae | f uaf | ga a fa ga | ua!p! | afa!p! a(be)!p!a | %21
w: ||||||||||
 fef !fermata!d2 E | G2 G GEG | c2 d !fermata!e2 c | d>ed c2 B | c3- c2 |] %26
w: |||||

